material/.icons/material/alert-box-outline.svg

<svg xmlns="http://www.w3.org/2000/svg" viewBox="0 0 24 24"><path d="M19 19H5V5h14m0-2H5a2 2 0 00-2 2v14a2 2 0 002 2h14a2 2 0 002-2V5a2 2 0 00-2-2m-8 12h2v2h-2v-2m0-8h2v6h-2V7"/></svg>

<?xml version="1.0" encoding="UTF-8"?><!DOCTYPE svg PUBLIC "-//W3C//DTD SVG 1.1//EN" "http://www.w3.org/Graphics/SVG/1.1/DTD/svg11.dtd"><svg xmlns="http://www.w3.org/2000/svg" xmlns:xlink="http://www.w3.org/1999/xlink" version="1.1" id="mdi-alert-box-outline" width="24" height="24" viewBox="0 0 24 24"><path d="M19,19H5V5H19M19,3H5A2,2 0 0,0 3,5V19A2,2 0 0,0 5,21H19A2,2 0 0,0 21,19V5C21,3.89 20.1,3 19,3M11,15H13V17H11V15M11,7H13V13H11V7" /></svg>
